X: 40
T: Jerry's beaver hat
C: anon.
O: Ireland
B: Francis O'Neill: "The Dance Music of Ireland" (1907) no. 40
R: Double jig
Z: Transcribed by Frank Nordberg - http://www.musicaviva.com
F: http://www.musicaviva.com/abc/tunes/ireland/oneill-1001/oneill-1001-004
0.abc
M: 6/8
L: 1/8
Q: 3/8=128
K: D
D|DFA d2e|fdB BAF|ABA AFD|EFE TE2D|DFA d2e|fdB BAF|ABA dAF|DED D2:|
d|dfa afd|gbg faf|dfa afd|cee e2f|dfa afd|gbg faf|BgB AFA|DEDD2:|
W:
W:
W: From Musica Viva - http://www.musicaviva.com
W: the Internet center for free sheet music downloads.


